projects/plugins/jetpack/images/lock.svg

<svg fill="none" height="19" viewBox="0 0 16 19" width="16" xmlns="http://www.w3.org/2000/svg"><path d="m4 3c0-1.65685 1.34315-3 3-3h2c1.6569 0 3 1.34315 3 3v4h2c1.2624 0 2 .9804 2 2v8c0 1.0196-.7376 2-2 2h-12c-1.26237 0-2-.9804-2-2v-8c0-1.0196.73763-2 2-2h2zm1.5 4h5v-4c0-.82843-.6716-1.5-1.5-1.5h-2c-.8284 0-1.5.67157-1.5 1.5z" fill="#000"/></svg>

<svg width="16" height="19" viewBox="0 0 16 19" fill="none" xmlns="http://www.w3.org/2000/svg">
<path d="M4 3C4 1.34315 5.34315 0 7 0H9C10.6569 0 12 1.34315 12 3V7H14C15.2624 7 16 7.9804 16 9V17C16 18.0196 15.2624 19 14 19H2C0.73763 19 0 18.0196 0 17V9C0 7.9804 0.73763 7 2 7H4V3ZM5.5 7H10.5V3C10.5 2.17157 9.8284 1.5 9 1.5H7C6.1716 1.5 5.5 2.17157 5.5 3V7Z" fill="black"/>
</svg>
